X:1
T:Billy Boy
M:6/8
L:1/4
K:G
 G B/2| d d/2 d e/2| d3/2 B A/2| G3/2 G G/2| G3/2 B d/2| e d/2| e f/2|\
 g3/2 g e/2| d e/2 d c/2| B3/2 G B/2| d d/2 d d/2| e d/2| B G/2| A G/2 G G/2|\
 G3/2 F G/2| A3/2 G A/2| B3/2 G B/2| d d/2| d d/2| e d/2 B G/2| A G/2 G G/2|\
 G3/2||
